X:791
T:Airs Norv\'egiens a Danser
C:John Malchair's Third Collection of Tunes
F:https://www.vwml.org/record/Malchair/3619/p79
F:www.vwml.org/topics/historic-dance-and-tune-books/Malchair
Z:Eric Conrad Mar 2020
M:3/8
L:1/16
K:Am
|: e (3efd | (fe) (ec) (B^G) | (AB) (cd) (3efd | (fe) (ec) (B^G) | A2A, :|
|: e (3efd | fe ec ea | a^g ae (3efd | fe ec ea |
a^g ae (3efd | fe ec B^G | AB cd (3efd | fe ec B^G | A2A, :|

